src/main/resources/icons/AllIcons/nodes/keymapEditor.svg

<!-- Copyright 2000-2021 JetBrains s.r.o. Use of this source code is governed by the Apache 2.0 license that can be found in the LICENSE file. -->
<svg xmlns="http://www.w3.org/2000/svg" width="16" height="16" viewBox="0 0 16 16">
  <g fill="none" fill-rule="evenodd">
    <polygon fill="#9AA7B0" points="14 14 7.001 14 5 14 5 15 15.001 15 15.001 14"/>
    <path fill="#9AA7B0" fill-opacity=".8" d="M14.9996,4.31298828 L14.9996,2.9996 L7.9846,2.9996 L6.6966,1.7106 C6.3046,1.3206 5.5326,0.9996 4.9786,0.9996 L1.0506,0.9996 C1.0236,0.9996 0.9996,1.0236 0.9996,1.0506 L0.9996,11.9996 L4.9996,11.9996 L4.9996,9.9996 L9.0716,9.9996 L14.9996,4.31298828 Z"/>
    <path fill="#62B543" d="M8,12 C8,12.553 7.553,13 7,13 C6.447,13 6,12.553 6,12 C6,11.447 6.447,11 7,11 C7.553,11 8,11.447 8,12"/>
    <path fill="#F26522" d="M15,12 C15,12.553 14.553,13 14,13 C13.447,13 13,12.553 13,12 C13,11.447 13.447,11 14,11 C14.553,11 15,11.447 15,12"/>
    <polygon fill="#62B543" points="14.529 9.082 12.918 7.471 9 11.368 9 12.978 10.61 12.978"/>
    <path fill="#9AA7B0" d="M15.8707193,7.7396179 C16.0430934,7.56722719 16.0430934,7.10684618 15.8707193,6.93445547 L15.0655569,6.12929303 C14.8931827,5.95690232 14.4327686,5.95690232 14.2603944,6.12929303 L13.455232,6.93445547 L15.0655569,8.54478033 L15.8707193,7.7396179 Z"/>
  </g>
</svg>

<svg xmlns="http://www.w3.org/2000/svg" width="16" height="16" viewBox="0 0 16 16"><rect id="frame" width="16" height="16" fill="none"/><g fill="none" fill-rule="evenodd"><path fill="#9AA7B0" d="M14 14H5v1h10.001v-1z"/><path fill="#9AA7B0" fill-opacity=".8" d="M15 4.313V3H7.985L6.697 1.71C6.305 1.32 5.533 1 4.979 1H1.05A.053.053 0 0 0 1 1.05V12h4v-2h4.072L15 4.313z"/><path fill="#62B543" d="M8 12a1 1 0 1 1-2 0 1 1 0 1 1 2 0"/><path fill="#F26522" d="M15 12a1 1 0 1 1-2 0 1 1 0 1 1 2 0"/><path fill="#62B543" d="M14.529 9.082l-1.611-1.611L9 11.368v1.61h1.61z"/><path fill="#9AA7B0" d="M15.87 7.74c.173-.173.173-.633 0-.806l-.804-.805c-.173-.172-.633-.172-.806 0l-.805.805 1.61 1.61.806-.804z"/></g></svg>
